src/16/actions/boundingbox_top_right.svg

<svg xmlns="http://www.w3.org/2000/svg" width="16" height="16" viewBox="0 0 16 16">
 <defs>
  <style id="current-color-scheme" type="text/css">
   .ColorScheme-Text { color:#565656; } .ColorScheme-Highlight { color:#5294e2; }
  </style>
 </defs>
 <path style="fill:currentColor" class="ColorScheme-Text" d="M 11 0 C 10.71058 0.000357 10.421729 0.025841875 10.136719 0.076171875 C 10.122869 0.078571875 10.109523 0.081484375 10.095703 0.083984375 C 9.8550531 0.12968437 9.6180788 0.1930075 9.3867188 0.2734375 C 9.3423627 0.2885975 9.2977193 0.30199937 9.2539062 0.31835938 C 9.0295262 0.40284938 8.8115125 0.50337063 8.6015625 0.61914062 C 8.5545725 0.64490063 8.5089806 0.67198875 8.4628906 0.69921875 C 8.2533406 0.82121875 8.0529412 0.958295 7.8632812 1.109375 C 7.8362513 1.131175 7.8117363 1.1553744 7.7851562 1.1777344 C 7.6074363 1.3273844 7.4403662 1.4892294 7.2851562 1.6621094 C 7.2622963 1.6875394 7.2371937 1.7104181 7.2148438 1.7363281 C 7.0575437 1.9209281 6.9139563 2.1167656 6.7851562 2.3222656 C 6.7550562 2.3694656 6.7257656 2.4165437 6.6972656 2.4648438 C 6.5700656 2.6789438 6.4591344 2.9022125 6.3652344 3.1328125 C 6.3546344 3.1591625 6.3461075 3.1863106 6.3359375 3.2128906 C 6.2364375 3.4683906 6.1579625 3.7316 6.1015625 4 L 0 4 L 0 6 L 6.1054688 6 C 6.1060108 6.0027 6.1068219 6.0052125 6.1074219 6.0078125 C 6.1556819 6.2439925 6.2209544 6.476365 6.3027344 6.703125 L 6.3066406 6.7148438 C 6.3073466 6.7167438 6.3077938 6.7187031 6.3085938 6.7207031 C 6.3904337 6.9408131 6.4876794 7.1548881 6.5996094 7.3613281 C 6.6094094 7.3796381 6.6188663 7.3978356 6.6289062 7.4160156 C 6.7299162 7.5972956 6.8421037 7.7721131 6.9648438 7.9394531 C 6.9833238 7.9648531 7.0005813 7.990595 7.0195312 8.015625 C 7.1566313 8.198155 7.3060669 8.3710831 7.4667969 8.5332031 C 7.6231369 8.6878831 7.7895138 8.8320737 7.9648438 8.9648438 C 7.9943238 8.9874637 8.0227444 9.0112331 8.0527344 9.0332031 C 8.4154644 9.2981031 8.8123219 9.512945 9.2324219 9.671875 C 9.2686769 9.685615 9.3051329 9.6980175 9.3417969 9.7109375 C 9.5566969 9.7884375 9.7766 9.8510375 10 9.8984375 L 10 16 L 12 16 L 12 9.8945312 C 12.0021 9.8941133 12.003759 9.8930781 12.005859 9.8925781 C 12.561829 9.7777081 13.094178 9.5690006 13.580078 9.2753906 C 13.592058 9.2681906 13.605277 9.2631794 13.617188 9.2558594 C 13.840727 9.1171994 14.052973 8.9611225 14.251953 8.7890625 C 14.274463 8.7697425 14.296199 8.7501687 14.318359 8.7304688 C 14.515929 8.5564087 14.699437 8.3670225 14.867188 8.1640625 C 14.871287 8.1589625 14.874786 8.1534975 14.878906 8.1484375 C 15.044906 7.9437675 15.194452 7.7262869 15.326172 7.4980469 C 15.334972 7.4828169 15.344856 7.468445 15.353516 7.453125 C 15.479596 7.227495 15.587994 6.99239 15.677734 6.75 C 15.690224 6.71673 15.703044 6.6839706 15.714844 6.6503906 C 15.799054 6.4116006 15.864989 6.1667487 15.912109 5.9179688 C 15.920109 5.8753388 15.924751 5.8320325 15.931641 5.7890625 C 15.974641 5.5282625 15.998 5.2644 16 5 C 15.999 4.8552 15.991516 4.7106063 15.978516 4.5664062 C 15.970516 4.4795063 15.959266 4.3941937 15.947266 4.3085938 C 15.937266 4.2321938 15.926109 4.1559781 15.912109 4.0800781 C 15.902109 4.0264781 15.888953 3.974775 15.876953 3.921875 C 15.815953 3.642975 15.731047 3.3698687 15.623047 3.1054688 C 15.605047 3.0614687 15.584453 3.0198625 15.564453 2.9765625 C 15.453453 2.7210625 15.319969 2.4754875 15.167969 2.2421875 C 15.144969 2.2082875 15.118703 2.1778313 15.095703 2.1445312 C 14.931703 1.9078313 14.748875 1.6855688 14.546875 1.4804688 C 14.531875 1.4656688 14.516953 1.4521 14.501953 1.4375 C 14.288953 1.2256 14.056594 1.0334013 13.808594 0.86328125 C 13.792454 0.85229125 13.774093 0.84478438 13.757812 0.83398438 C 13.506422 0.66638438 13.240361 0.52191375 12.962891 0.40234375 L 12.947266 0.39453125 C 12.939666 0.39133125 12.931448 0.38991875 12.923828 0.38671875 C 12.636878 0.26683875 12.339356 0.173985 12.035156 0.109375 C 12.021276 0.106475 12.008061 0.10240938 11.994141 0.099609375 C 11.832001 0.066899375 11.66741 0.042000625 11.5 0.025390625 C 11.334 0.008581625 11.167 0.000103 11 0 z"/>
</svg>

<svg xmlns="http://www.w3.org/2000/svg" width="16" height="16"><defs><style id="current-color-scheme" type="text/css"></style></defs><path d="M11 0a5 5 0 0 0-.863.076l-.041.008a5 5 0 0 0-.71.19c-.044.015-.088.028-.132.044a5 5 0 0 0-.652.301l-.14.08a5 5 0 0 0-.599.41c-.027.022-.051.046-.078.069a5 5 0 0 0-.5.484c-.023.026-.048.048-.07.074a4.986 4.986 0 0 0-.518.729 4.998 4.998 0 0 0-.332.668l-.03.08c-.099.255-.177.519-.233.787H0v2h6.105l.002.008a5 5 0 0 0 .196.695l.004.012a5 5 0 0 0 .293.646l.029.055a5 5 0 0 0 .336.523l.055.077c.137.182.286.355.447.517a5 5 0 0 0 .498.432l.088.068a5 5 0 0 0 1.18.639c.036.014.072.026.109.039.215.077.435.14.658.187V16h2V9.895l.006-.002a5 5 0 0 0 1.574-.618c.012-.007.025-.012.037-.02a5 5 0 0 0 .635-.466l.066-.059a5 5 0 0 0 .55-.566l.01-.016a5 5 0 0 0 .448-.65l.028-.045c.126-.226.234-.46.324-.703l.037-.1a5 5 0 0 0 .197-.732c.008-.043.013-.086.02-.129.043-.26.066-.525.068-.789a5.23 5.23 0 0 0-.088-.92c-.01-.054-.023-.105-.035-.158a4.963 4.963 0 0 0-.254-.817c-.018-.044-.039-.085-.059-.128a4.988 4.988 0 0 0-.396-.735c-.023-.034-.05-.064-.072-.097a5.015 5.015 0 0 0-.55-.665l-.044-.042a4.967 4.967 0 0 0-.693-.575c-.017-.01-.035-.018-.051-.029a5 5 0 0 0-.795-.432l-.016-.007C12.94.39 12.931.39 12.924.387a5 5 0 0 0-.889-.278l-.04-.01A4.986 4.986 0 0 0 11 0z" fill="currentColor" color="#565656"/></svg>
